!!!!SEGMENT: pl-kozmzk--mzk-m-159--038_walczynski-franciszek--praeludia-organi-op-5-maestoso.krn
!!!cenid: 18xx:2781
!!!COM: Walczyński, Franciszek
!!!COM-rismID:
!!!CDT: ~1852-1937
!!!CNT: Polish
!!!GTL: Praeludia organi op. 5
!!!OTL: 38. Maestoso
!!!PDT: 1894
!!!AGN: Secular; Prelude
!!!SMS-siglum: PL-KOZmzk
!!!SMS-shelfmark: mzk/m/159
!!!SMS-shelfwork: 038 G
!!!SMS-variant:
!!!SMS-altvar:
!!!NIFC-rismSourceID: 1001118840
!!!NIFC-islandoraID: pl-kozmzk:2265
!!!URL-pdf-islandora: https://repozytorium.nifc.pl/islandora/object/pl-kozmzk%3A2265/datastream/PDF/view
!!!URL-scan: https://polish.musicsources.pl/pl/lokalizacje/galeria/druki-muzyczne/7406 @EN{Scan on Polish Music Herritage in Open Access Website} @PL{Skany w portalu Dziedzictwo Muzyki Polskiej w otwartym dostępie}
!!!ONB-nifc: UWAGA: numeracja plików zgodna z numeracją źrodłową
!!!OMD: 38. Maestoso.
!!!AIN: 1 empty 1 organ
!!!key:
**kern	**kern	**dynam
*part2	*part1	*part1
*staff2	*staff1	*
*Iempty	*Iorgan	*
*	*I"[Organo]	*
*clefF4	*clefG2	*
*k[b-e-a-d-g-]	*k[b-e-a-d-g-]	*
*D-:	*D-:	*
*M3/4	*M3/4	*
=1	=1	=1
*^	*^	*
(4.D-/	4.D-\	(4.d-/	4.d-\	f
8E-/L	8E-\L	8e-/L	8e-\L	.
8F/	8F\	8f/	8f\	.
8B-/J	8B-\J	8b-/J	8b-\J	.
=2	=2	=2	=2	=2
4.A-/	4.A-\	4.a-/	4.a-\	.
8F/L	8F\L	8f/L	8f\L	.
8D-/	8D-\	8d-/	8d-\	.
8E-/J)	8E-\J	8e-/J)	8e-\J	.
=3	=3	=3	=3	=3
(4.F/	4.F\	(4.f/	4.f\	ff
8B-/L	8B-\L	8b-/L	8b-\L	.
8d-/	8d-\	8dd-/	8dd-\	.
8f/J	8f\J	8ff/J	8ff\J	.
=4	=4	=4	=4	=4
4.e-/	4.e-\	4.ee-/	4.ee-\	.
8c/L	8c\L	8cc/L	8cc\L	.
8A-/	8A-\	8a-/	8a-\	.
8B-/J)	8F\J	8b-/J)	8a-\J	.
=5	=5	=5	=5	=5
8e-/L	(2.E-\	(8cc/L	2a-\	.
8f/J	.	8dd-/J	.	.
4.e-/	.	4b-/	.	.
.	.	4cc/	4gn\	.
[8d-X/	.	.	.	.
=6	=6	=6	=6	=6
4d-/]	2.A-;\)	2.a-;/)	2.a-\	p
8c/L	.	.	.	.
8Bn/J	.	.	.	.
4c;/	.	.	.	.
=7	=7	=7	=7	=7
(4.g-/	2.r	(4.ee-/	2a-\	fp
8f/	.	8dd-/	.	.
8e-/L	.	8cc/L	8g-\L	.
8d-/J	.	8b-/J	8f\J	.
!!LO:LB:g=original
=8	=8	=8	=8	=8
4.c/	2.r	4.a-/	4.e-\	.
8d-/L	.	8b-/L	8f\L	.
8c/	.	8a-/	8e-\	.
8B-/J	.	8g-/J	8d-\J	.
=9	=9	=9	=9	=9
!LO:TX:b:i:t=Ped.	!	!	!	!
2.A-/)	4.Fn\	2.f/)	2.c\	f
.	8G-\L	.	.	.
.	8F\	.	.	.
.	8E-\J	.	.	.
=10	=10	=10	=10	=10
!	!	!	!	!LO:DY:a
[2.B-/	2.Dn\	(4.b-/	2.f\	f
.	.	8cc-X/L	.	.
.	.	8b-/	.	.
.	.	8a-/J	.	.
=11	=11	=11	=11	=11
2.B-/]	2.E-\	2.g-/)	4.e-\	.
.	.	.	8f\L	.
.	.	.	8e-\	.
.	.	.	8d-\J	.
=12	=12	=12	=12	=12
([2.A-/	2.C\	(4.a-/	2.e-\	f
.	.	8b-/L	.	.
.	.	8a-/	.	.
.	.	8g-/J	.	.
=13	=13	=13	=13	=13
!	!	!	!	!LO:DY:rj
4.A-/]	[2.D-\	4.f/	[2.d-\	p
8B-/L	.	8g-/L	.	.
8A-/	.	8f/	.	.
8G-/J)	.	8e-/J	.	.
=14	=14	=14	=14	=14
4F/	4D-\]	4d-/)	4d-\]	.
4B-/	4GG-\	2e-^/	4d-\	fp
8A-/L	4AA-\	.	4c\	.
[8G-/J	.	.	.	.
=15	=15	=15	=15	=15
(4.G-/]	[2.D-\	[2.d-/	[2.A-\	<
8E-/	.	.	.	.
!	!	!LO:TX:a:i:t=rit.	!	!
8F/L	.	.	.	.
8G-/J	.	.	.	[
=16	=16	=16	=16	=16
2.F/)	2.D-;\]	2.d-;/]	2.A-\]	>
.	.	.	.	] pp
*v	*v	*	*	*
*	*v	*v	*
==	==	==
*-	*-	*-
!!!system-decoration: {(s1,s2)}
!!!EED: Andrzej Borzym
!!!EEV: 2021-08-08
!!!ENC: Krzysztof Stępień
!!!END: 2021-07-26
